osm_icons/spring.svg

<?xml version="1.0" encoding="UTF-8" standalone="no"?>
<svg
   xmlns:dc="http://purl.org/dc/elements/1.1/"
   xmlns:cc="http://creativecommons.org/ns#"
   xmlns:rdf="http://www.w3.org/1999/02/22-rdf-syntax-ns#"
   xmlns:svg="http://www.w3.org/2000/svg"
   xmlns="http://www.w3.org/2000/svg"
   xmlns:sodipodi="http://sodipodi.sourceforge.net/DTD/sodipodi-0.dtd"
   xmlns:inkscape="http://www.inkscape.org/namespaces/inkscape"
   height="10.25"
   width="10.25"
   inkscape:version="1.0beta1 (32d4812, 2019-09-19)"
   sodipodi:docname="spring.svg"
   id="svg18"
   version="1.1">
  <metadata
     id="metadata24">
    <rdf:RDF>
      <cc:Work
         rdf:about="">
        <dc:format>image/svg+xml</dc:format>
        <dc:type
           rdf:resource="http://purl.org/dc/dcmitype/StillImage" />
        <dc:title></dc:title>
      </cc:Work>
    </rdf:RDF>
  </metadata>
  <defs
     id="defs22">
    <marker
       id="marker53"
       orient="auto"
       refY="74.64286"
       refX="160.64285"
       markerHeight="8.4375"
       markerWidth="8.4375">
      <path
         inkscape:connector-curvature="0"
         id="path48"
         d="m 160.64286,70.424107 c -1.03125,0 -2.07384,0.339749 -2.88062,1.056885 -0.80677,0.717135 -1.33813,1.825927 -1.33813,3.161865 0,1.335937 0.53136,2.44473 1.33813,3.161865 0.80678,0.717136 1.84937,1.056885 2.88062,1.056885 1.03125,0 2.07384,-0.339749 2.88062,-1.056885 0.80677,-0.717135 1.33813,-1.825928 1.33813,-3.161865 0,-1.335938 -0.53136,-2.44473 -1.33813,-3.161865 -0.80678,-0.717136 -1.84937,-1.056885 -2.88062,-1.056885 z m 0,1.6875 c 0.65625,0 1.30116,0.222752 1.76001,0.630615 0.45885,0.407864 0.77124,0.986574 0.77124,1.900635 0,0.914061 -0.31239,1.492771 -0.77124,1.900635 -0.45885,0.407863 -1.10376,0.630615 -1.76001,0.630615 -0.65625,0 -1.30116,-0.222752 -1.76001,-0.630615 -0.45885,-0.407864 -0.77124,-0.986574 -0.77124,-1.900635 0,-0.914061 0.31239,-1.492771 0.77124,-1.900635 0.45885,-0.407863 1.10376,-0.630615 1.76001,-0.630615 z"
         style="color:#000000;font-style:normal;font-variant:normal;font-weight:normal;font-stretch:normal;font-size:medium;line-height:normal;font-family:sans-serif;font-variant-ligatures:normal;font-variant-position:normal;font-variant-caps:normal;font-variant-numeric:normal;font-variant-alternates:normal;font-variant-east-asian:normal;font-feature-settings:normal;font-variation-settings:normal;text-indent:0;text-align:start;text-decoration:none;text-decoration-line:none;text-decoration-style:solid;text-decoration-color:#000000;letter-spacing:normal;word-spacing:normal;text-transform:none;writing-mode:lr-tb;direction:ltr;text-orientation:mixed;dominant-baseline:auto;baseline-shift:baseline;text-anchor:start;white-space:normal;shape-padding:0;shape-margin:0;inline-size:0;clip-rule:nonzero;display:inline;overflow:visible;visibility:visible;opacity:1;isolation:auto;mix-blend-mode:normal;color-interpolation:sRGB;color-interpolation-filters:linearRGB;solid-color:#000000;solid-opacity:1;vector-effect:none;fill:#000000;fill-opacity:1;fill-rule:nonzero;stroke:none;stroke-width:1.125;stroke-linecap:butt;stroke-linejoin:miter;stroke-miterlimit:4;stroke-dasharray:none;stroke-dashoffset:0;stroke-opacity:1;color-rendering:auto;image-rendering:auto;shape-rendering:auto;text-rendering:auto;enable-background:accumulate;stop-color:#000000;stop-opacity:1" />
    </marker>
  </defs>
  <sodipodi:namedview
     inkscape:current-layer="svg18"
     inkscape:window-maximized="0"
     inkscape:window-y="76"
     inkscape:window-x="52"
     inkscape:cy="-71.046332"
     inkscape:cx="-162.49245"
     inkscape:zoom="1.4"
     showgrid="false"
     id="namedview20"
     inkscape:window-height="907"
     inkscape:window-width="1600"
     inkscape:pageshadow="2"
     inkscape:pageopacity="0"
     guidetolerance="10"
     gridtolerance="10"
     objecttolerance="10"
     borderopacity="1"
     inkscape:document-rotation="0"
     bordercolor="#666666"
     pagecolor="#ffffff" />
  <path
     style="color:#000000;font-style:normal;font-variant:normal;font-weight:normal;font-stretch:normal;font-size:medium;line-height:normal;font-family:sans-serif;font-variant-ligatures:normal;font-variant-position:normal;font-variant-caps:normal;font-variant-numeric:normal;font-variant-alternates:normal;font-variant-east-asian:normal;font-feature-settings:normal;font-variation-settings:normal;text-indent:0;text-align:start;text-decoration:none;text-decoration-line:none;text-decoration-style:solid;text-decoration-color:#000000;letter-spacing:normal;word-spacing:normal;text-transform:none;writing-mode:lr-tb;direction:ltr;text-orientation:mixed;dominant-baseline:auto;baseline-shift:baseline;text-anchor:start;white-space:normal;shape-padding:0;shape-margin:0;inline-size:0;clip-rule:nonzero;display:inline;overflow:visible;visibility:visible;opacity:1;isolation:auto;mix-blend-mode:normal;color-interpolation:sRGB;color-interpolation-filters:linearRGB;solid-color:#000000;solid-opacity:1;vector-effect:none;fill:#000000;fill-opacity:1;fill-rule:nonzero;stroke:none;stroke-linecap:butt;stroke-linejoin:miter;stroke-miterlimit:4;stroke-dasharray:none;stroke-dashoffset:0;stroke-opacity:1;color-rendering:auto;image-rendering:auto;shape-rendering:auto;text-rendering:auto;enable-background:accumulate;stop-color:#000000;stop-opacity:1"
     d="M 5.125,0 C 3.89236,0 2.63621,0.401929 1.64258,1.285156 0.64895,2.168383 0,3.5625 0,5.125 0,6.6875 0.64895,8.081617 1.64258,8.964844 2.63621,9.848071 3.89236,10.25 5.125,10.25 6.35764,10.25 7.61379,9.848071 8.60742,8.964844 9.60105,8.081617 10.25,6.6875 10.25,5.125 10.25,3.5625 9.60105,2.168383 8.60742,1.285156 7.61379,0.401929 6.35764,0 5.125,0 Z m 0,3.5 C 5.57986,3.5 6.01121,3.660571 6.2832,3.902344 6.5552,4.144116 6.75,4.437501 6.75,5.125 6.75,5.812499 6.5552,6.105884 6.2832,6.347656 6.01121,6.589429 5.57986,6.75 5.125,6.75 4.67014,6.75 4.23879,6.589429 3.9668,6.347656 3.6948,6.105884 3.5,5.812499 3.5,5.125 3.5,4.437501 3.6948,4.144116 3.9668,3.902344 4.23879,3.660571 4.67014,3.5 5.125,3.5 Z"
     id="path44"
     inkscape:connector-curvature="0" />
</svg>

<svg width="10.25" height="10.25" xmlns="http://www.w3.org/2000/svg"><path d="M5.125 0C3.892 0 2.636.402 1.643 1.285S0 3.562 0 5.125s.649 2.957 1.643 3.84 2.25 1.285 3.482 1.285 2.489-.402 3.482-1.285 1.643-2.277 1.643-3.84-.649-2.957-1.643-3.84S6.357 0 5.125 0zm0 3.5c.455 0 .886.16 1.158.402.272.242.467.535.467 1.223s-.195.98-.467 1.223c-.272.242-.703.402-1.158.402s-.886-.16-1.158-.402c-.272-.242-.467-.535-.467-1.223s.195-.98.467-1.223c.272-.241.703-.402 1.158-.402z"/></svg>
